packages/fxa-settings/src/components/ConnectedServices/pocket.svg

<svg width="24" height="21" viewBox="0 0 24 21" fill="none" xmlns="http://www.w3.org/2000/svg">
<path fill-rule="evenodd" clip-rule="evenodd" d="M12 21C5.37258 21 0 15.6274 0 9V3C0 1.34315 1.34315 0 3 0H21C22.6569 0 24 1.34315 24 3V9C24 15.6274 18.6274 21 12 21ZM17.9775 5.952C17.5642 5.95322 17.1701 6.12662 16.89 6.4305L11.967 11.355L7.1325 6.504C6.85643 6.16004 6.44101 5.95756 6 5.952C5.39607 5.95209 4.8511 6.31434 4.61724 6.87115C4.38338 7.42796 4.50625 8.07071 4.929 8.502L4.905 8.5185L9.8445 13.4775L10.905 14.538C11.4907 15.1236 12.4403 15.1236 13.026 14.538L14.0865 13.4775L19.05 8.5185C19.4848 8.08856 19.6151 7.43773 19.3793 6.87354C19.1436 6.30934 18.5889 5.94474 17.9775 5.952Z" fill="#20123A"/>
<mask id="mask0" mask-type="alpha" maskUnits="userSpaceOnUse" x="0" y="0" width="24" height="21">
<path fill-rule="evenodd" clip-rule="evenodd" d="M12 21C5.37258 21 0 15.6274 0 9V3C0 1.34315 1.34315 0 3 0H21C22.6569 0 24 1.34315 24 3V9C24 15.6274 18.6274 21 12 21ZM17.9775 5.952C17.5642 5.95322 17.1701 6.12662 16.89 6.4305L11.967 11.355L7.1325 6.504C6.85643 6.16004 6.44101 5.95756 6 5.952C5.39607 5.95209 4.8511 6.31434 4.61724 6.87115C4.38338 7.42796 4.50625 8.07071 4.929 8.502L4.905 8.5185L9.8445 13.4775L10.905 14.538C11.4907 15.1236 12.4403 15.1236 13.026 14.538L14.0865 13.4775L19.05 8.5185C19.4848 8.08856 19.6151 7.43773 19.3793 6.87354C19.1436 6.30934 18.5889 5.94474 17.9775 5.952Z" fill="white"/>
</mask>
<g mask="url(#mask0)">
</g>
</svg>

<svg width="24" height="21" fill="none" xmlns="http://www.w3.org/2000/svg"><path fill-rule="evenodd" clip-rule="evenodd" d="M12 21C5.373 21 0 15.627 0 9V3a3 3 0 013-3h18a3 3 0 013 3v6c0 6.627-5.373 12-12 12zm5.977-15.048a1.485 1.485 0 00-1.087.479l-4.923 4.924-4.835-4.851A1.476 1.476 0 006 5.952a1.5 1.5 0 00-1.071 2.55l-.024.016 4.94 4.96 1.06 1.06a1.5 1.5 0 002.121 0l1.06-1.06 4.964-4.96a1.5 1.5 0 00-1.073-2.566z" fill="#20123A"/><mask id="a" maskUnits="userSpaceOnUse" x="0" y="0" width="24" height="21"><path fill-rule="evenodd" clip-rule="evenodd" d="M12 21C5.373 21 0 15.627 0 9V3a3 3 0 013-3h18a3 3 0 013 3v6c0 6.627-5.373 12-12 12zm5.977-15.048a1.485 1.485 0 00-1.087.479l-4.923 4.924-4.835-4.851A1.476 1.476 0 006 5.952a1.5 1.5 0 00-1.071 2.55l-.024.016 4.94 4.96 1.06 1.06a1.5 1.5 0 002.121 0l1.06-1.06 4.964-4.96a1.5 1.5 0 00-1.073-2.566z" fill="#fff"/></mask></svg>
